X:1
T:Love Theme from Braveheart
C:James Horner
N:Tony Hinnigan - whistle
Z:MTGuru for C&F
R:Air
M:4/4
K:Am
EG|A6 c2|B3 c/B/ A2G2|G6 A2|E4 E2G2|
A6 c2|B3 c/B/ A2G2|G2 A6-|A4 e2g2|
a4 a2g2|d4 c2d2|=f2e2 d2c2|A4 E2G2|
A6 c2|B3 c/B/ A2G2|A8-|HA8|]
